X:1
T:Some Day
T:Some Day
T:J. Glenn Gould
T:J. Glenn Gould & A. F. I., 1914
T:Public Domain Courtesy of the Cyber Hymnal™
T:Public Domain Courtesy of the Cyber Hymnal™
C:J. Glenn Gould
Z:Public Domain
Z:Courtesy of the Cyber Hymnal™
%%score ( 1 2 ) ( 3 4 )
L:1/8
Q:1/4=160
M:6/4
K:Db
V:1 treble 
V:2 treble 
V:3 bass 
V:4 bass 
V:1
 [A,D]2 [A,D]2 [A,E]2 [DF]2 [EG]2 [FA]2 | [GB]2 [Ac]2 [GB]2 [FA]2 [DF]4 | %2
w: 1.~Some day when all of life’s|sad- ness is o- ver,|
w: 2.~Oh, praise the Lord for the|gift of the Sav- ior!|
w: 3.~Free from all sor- row, all|care and all sigh- ing,|
w: 4.~Some day the King will re-|turn in His beau- ty;|
 [DF]2 [D=E]2 [DF]2 [GB]2 [FA]2 [DF]2 | D2 [B,C]2 [B,D]2 [CE]6 | %4
w: And we shall stand on that|beau- ti- ful shore;|
w: Fa- vor di- vine to the|child- ren of men;|
w: Free from the pain that we|can’t un- der- stand;|
w: Some day our loved ones will|greet us a- gain;|
 [DF]2 [DF]2 [EG]2 [FA]2 [Gc]2 [Ad]2 | [Ge]2 [Gd]2 [GB]2 [GB]2 [FA]4 | %6
w: When all our heart- aches are|en- ded for- ev- er,|
w: But all the joys of our|life here with Je- sus|
w: In that bright ci- ty there’s|noth- ing but glad- ness,|
w: Some day we’ll join in the|songs of the an- gels,|
 [GB]2 [G=A]2 [GB]2 [=Ge]2 [GB]2 [Gd]2 | [Gc]6- [Gc]4 z2 || %8
w: Dwell- ing with Christ ev- er-|more. *|
w: Burst in- to ec- sta- sies|then. *|
w: Oh, let me fly to that|land! *|
w: That will be glor- i- ous|then. *|
"^Refrain" [Ge]2 [Ge]2 [Ge]2 [Ge]2 [Fd]2 [Gc]2 | [Fd]6 [Fd]6 | %10
w: ||
w: We’ll tell the won- der- ful|sto- ry,|
w: ||
w: ||
 [Ge]2 [Ge]2 [Ge]2 [Ge]2 [Gc]2 [GA]2 | [Fd]6 [Fd]6 | [GB]2 [G=A]2 [GB]2 G2 [GB]2 [Gd]2 | %13
w: |||
w: There with the King in His|glo- ry;|Je- sus a man- sion will|
w: |||
w: |||
 [FA]6 [FB]6 | [Gc]2 [G=B]2 [Gc]2 [=Gd]2 [Gc]2 [Gd]2 | [Ae]6- [Ae]4 z2 | %16
w: |||
w: give us,|In that bright home o- ver|there; *|
w: |||
w: |||
 [Fd]2 [Fc]2 [FB]2 [FA]2 [F=G]2 [FA]2 | [Gc]6 [Gc]6 | [Ge]2 [Gd]2 [Gc]2 [GB]2 [FA]2 [EG]2 | %19
w: |||
w: An- gels we’ll tell of sal-|va- tion,|Won- der- ful gift to the|
w: |||
w: |||
 [DF]6 [FA]6 | [GB]2 [G=A]2 [GB]2 [Gd]2 [Gc]2 [GB]2 | A6 [Fd]6 | %22
w: |||
w: na- tions;|We’ll be the blest of cre-|a- tion,|
w: |||
w: |||
 [Fd]2 [Fc]2 [FB]2 !fermata![Ge]2"^riten." [GB]2 [Gc]2 | [Fd]6- [Fd]4 z2 |] %24
w: ||
w: Reign- ing with Christ o- ver|there. *|
w: ||
w: ||
V:2
 x12 | x12 | x12 | D2 x10 | x12 | x12 | x12 | x12 || x12 | x12 | x12 | x12 | x6 G2 x4 | x12 | x12 | %15
 x12 | x12 | x12 | x12 | x12 | x12 | A6 x6 | x12 | x12 |] %24
V:3
 [D,F,]2 [D,F,]2 [D,G,]2 [D,A,]2 [D,A,]2 [D,D]2 | [G,D]2 [G,D]2 [G,D]2 [D,D]2 [D,A,]4 | %2
w: ~ ~ ~ ~ ~ ~|~ ~ ~ ~ ~|
 [D,A,]2 [D,=G,]2 [D,A,]2 [D,D]2 [D,D]2 [D,A,]2 | [B,,=G,]2 [B,,G,]2 [B,,G,]2 [A,,A,]6 | %4
w: ~ ~ ~ ~ ~ ~|~ ~ ~ ~|
 [D,A,]2 [D,A,]2 [D,A,]2 [D,D]2 [E,A,]2 [F,A,]2 | [G,B,]2 [G,B,]2 [G,D]2 [D,D]2 [D,D]4 | %6
w: ~ ~ ~ ~ ~ ~|~ ~ ~ ~ ~|
 [G,D]2 [G,C]2 [G,B,]2 [E,B,]2 [E,E]2 [E,E]2 | [A,E]6- [A,E]4 z2 || %8
w: ~ ~ ~ ~ ~ ~|~ *|
 [A,C]2 [A,C]2 [A,C]2 [A,C]2 [A,D]2 [A,E]2 | [D,D]6 [D,A,]6 | %10
w: ~ ~ ~ ~ ~ ~|~ ~|
 [A,C]2 [A,C]2 [A,C]2 [A,C]2 [A,E]2 [A,C]2 | [D,D]6 [D,D]6 | %12
w: ~ ~ ~ ~ ~ ~|~ ~|
 [G,D]2 [G,C]2 [G,D]2 [G,B,]2 [G,B,]2 [G,B,]2 | [F,D]6 [D,A,]6 | %14
w: ~ ~ ~ ~ ~ ~|~ ~|
 [E,A,]2 [E,A,]2 [E,A,]2 [E,B,]2 [E,E]2 [E,D]2 | C6- C4 E,2 | %16
w: ~ ~ ~ ~ ~ ~|He’s * pre-|
 [D,A,]2 [D,A,]2 [D,A,]2 [D,A,]2 [D,B,]2 [D,A,]2 | [E,A,]6 [E,A,]6 | %18
w: pared for us; * * *||
 [A,C]2 [A,D]2 [A,E]2 [A,D]2 [A,C]2 A,2 | [D,A,]6 [D,D]6 | %20
w: ||
 [G,D]2 [G,D]2 [G,D]2 [G,B,]2 [G,C]2 [G,D]2 | [F,D]6 [D,A,]6 | %22
w: ||
 A,2 [A,D]2 [A,D]2 [A,,C]2 [A,,D]2 [A,,E]2 | [D,D]6- [D,D]4 z2 |] %24
w: ||
V:4
 x12 | x12 | x12 | x12 | x12 | x12 | x12 | x12 || x12 | x12 | x12 | x12 | x12 | x12 | x12 | %15
 A,2 B,2 A,2 G,2 F,2 x2 | x12 | x12 | x10 A,2 | x12 | x12 | x12 | A,2 x10 | x12 |] %24

